lg/bem-2.svg

<svg viewBox="0 0 256 220" version="1.1" xmlns="http://www.w3.org/2000/svg" preserveAspectRatio="xMidYMid" height="1em" width="1em">
  <g>
    <path d="M146.334886,187.820408 L255.168179,187.820408 L255.168179,219.167347 L146.334886,219.167347 L146.334886,187.820408 Z" fill="#010101"/>
    <path d="M130.075454,187.820408 L130.075454,130.873469 L78.9369188,130.873469 L78.9369188,187.820408 L130.075454,187.820408" fill="#F7B334"/>
    <path d="M108.046547,62.1714286 L66.0867227,62.1714286 L34.0923569,0 L0.2622489,0 L0.2622489,187.820408 L79.1991677,187.820408 L79.1991677,130.873469 L146.072637,130.873469 L146.072637,100.04898 C146.072637,78.6285714 130.599952,62.1714286 108.046547,62.1714286 L108.046547,62.1714286 Z M120.634494,113.110204 L109.095542,113.110204 L95.9830972,110.236735 L95.9830972,107.363265 L120.634494,107.363265 L120.634494,113.110204 L120.634494,113.110204 Z" fill="#010101"/>
  </g>
</svg>

<svg viewBox="0 0 256 220" xmlns="http://www.w3.org/2000/svg" preserveAspectRatio="xMidYMid" height="1em" width="1em">
  <path d="M146.335 187.82h108.833v31.347H146.335V187.82Z" fill="#010101"/>
  <path d="M130.075 187.82v-56.947H78.937v56.947h51.138" fill="#F7B334"/>
  <path d="M108.047 62.171h-41.96L34.092 0H.262v187.82H79.2v-56.947h66.874V100.05c0-21.42-15.473-37.878-38.026-37.878Zm12.587 50.94h-11.538l-13.113-2.874v-2.874h24.651v5.747Z" fill="#010101"/>
</svg>
